!!!!SEGMENT: pl-wnifc--13846--156_anonim--156-zuryla-sia-popadia-swojeju-bidoj.krn
!!!kernsource:
!!!cenid: 18xx:3378
!!!COM: Anonim
!!!COM-rismid: pe30004985
!!!CDT:
!!!CNT:
!!!OTL: 156. Żuryła sia popadia swojeju bidoj
!!!PDT: 1833
!!!AGN:
!!!SMS-siglum: PL-Wnifc
!!!SMS-shelfmark: 13846
!!!SMS-shelfwork: 156 W
!!!NIFC-rismid: 1001039689
!!!URL-scan: http://repozytorium.nifc.pl/skany/pl-wnifc-nut--13846
!!!ONB-nifc:
!!!OMD: Andante sostenuto
**kern	**kern	**dynam	**kern	**text
*part2	*part2	*part2	*part1	*part1
*staff3	*staff2	*	*staff1	*staff1
*clefF4	*clefG2	*	*clefG2	*
*k[f#c#]	*k[f#c#]	*	*k[f#c#]	*
*D:	*D:	*	*D:	*
*M2/4	*M2/4	*	*M2/4	*
=1-	=1-	=1-	=1-	=1-
*^	*	*	*	*
*	*4\right	*	*	*	*
(<16D/LL	4D\^	16aa\KL 16ff#\	.	16a/	Żu-
16d/'	.	8.aa\J 8.ff#\	sf	8.a/	-ry-
16d/'	.	.	.	.	.
16d/'JJ)	.	.	.	.	.
(<16D/LL	4D\^	16bb\KL 16gg\	.	16b/	-ła
16d/'	.	8.bb\J 8.gg\	sf	8.b/	sia
16d/'	.	.	.	.	.
16d/'JJ)	.	.	.	.	.
=2	=2	=2	=2	=2	=2
(<16D/LL	4D\^	16gg\KL 16ee\	.	16g/	po-
16d/'	.	8.gg\J 8.ee\	sf	8.g/	-pa-
16d/'	.	.	.	.	.
16d/'JJ)	.	.	.	.	.
(<16D/LL	4D\^	4aa\ 4ff#\^<	.	4a/	-dia
16d/'	.	.	.	.	.
16d/'	.	.	.	.	.
16d/'JJ)	.	.	.	.	.
!!LO:LB:g=original
=3	=3	=3	=3	=3	=3
(<16D/LL	4D\	16ff#\KL 16dd\	.	16f#/	swo-
16d/'	.	8.ff#\J 8.dd\	.	8.f#/^>	-je-
16d/'	.	.	.	.	.
16d/'JJ)	.	.	.	.	.
*rep	*rep	*	*	*	*
(<16D/LL	4D\	8.gg\L 8.b\	.	8.g/^	-ju-
16d/'	.	.	.	.	.
16d/'	.	.	.	.	.
16d/'JJ)	.	16ee\Jk 16cc#\ 16g\	.	16e/	-bi-
*Xrep	*Xrep	*	*	*	*
=4	=4	=4	=4	=4	=4
*	*	*^	*	*	*
(<16D/LL	4D\	4dd/ 4f#/`	4f#\	.	4d/	-do-
16d/'	.	.	.	.	.	.
16d/'	.	.	.	.	.	.
16d/'JJ)	.	.	.	.	.	.
(<16D/LL	4D\	8dd/ 8f#/`	8f#yy\	.	8d/	-ju;
16d/'	.	.	.	.	.	.
16A/'	.	8r	8ryy	.	8r	.
16F#/'JJ)	.	.	.	.	.	.
*	*	*v	*v	*	*	*
!!LO:LB:g=original
=5	=5	=5	=5	=5	=5
!LO:TX:t=P:problem:mixed beam	!	!	!	!	!
(>16DD/LL	4DD\'	16aa\KL 16ff#\	.	16a/	bid-
16D\'	.	8.aa\J 8.ff#\	.	8.a/	-naż
16D\'	.	.	.	.	.
16D\'JJ)	.	.	.	.	.
(16DD/LL	4DD\	16bb\KL 16gg\	.	16b/	mo-
16D/'	.	8.bb\J 8.gg\	.	8.b\	-ja
16D/'	.	.	.	.	.
16D/'JJ)	.	.	.	.	.
=6	=6	=6	=6	=6	=6
(<16DD/LL	4DD\	16gg\KL 16ee\	.	16g/	ho-
16D/'	.	8.gg\J 8.ee\	.	8.g/^>	-ło-
16D/'	.	.	.	.	.
16D/'JJ)	.	.	.	.	.
4ryy	4ryy	8.aa\L 8.ff#\	.	8.a/	-woń-
.	.	16gg\Jk 16ee\	.	16g/	-ka
*v	*v	*	*	*	*
!!LO:LB:g=original
=7	=7	=7	=7	=7
(16DD/^LL	16ff#\KL 16dd\	.	16f#/`	szo
16D\)	8.ff#\J 8.dd\	.	8.f#/^>	pip
(16BB/^	.	.	.	.
16B\JJ)	.	.	.	.
(16GG/^LL	8.gg\L 8.b\	.	8.g/^	zbo-
16G\)	.	.	.	.
(16AA/^	.	.	.	.
16A\JJ)	16ee\Jk 16cc#\ 16g\	.	16e/'	-ro-
=8	=8	=8	=8	=8
*	*^	*	*	*
!LO:TX:t=P:problem:mixed beam	!	!	!	!	!
16D\'LL	4dd/ 4f#/	4f#\	.	4d/	-do-
16DD/	.	.	.	.	.
16FF#/	.	.	.	.	.
16AA/JJ	.	.	.	.	.
8D\^	8dd/ 8f#/	8f#yy\	.	8d/	-ju;
8r	8r	8ryy	.	8r	.
*	*v	*v	*	*	*
!!LO:PB:g=original
=9!|:	=9!|:	=9!|:	=9!|:	=9!|:
16D\`LL	8ff#\L 8dd\`	.	8f#/	ach
16A\`	.	.	.	.
16D\`	16ff#\L 16dd\`	.	16f#/	me-
16A\`JJ	16ff#\JJ 16dd\`	.	16f#/	-ni
16AA\`LL	(16ff#\LL 16dd\	.	(16f#/LL	tiaż-
16A\`	16ee\J 16cc#\)	.	16e/JJ)	.
16AA\`	8ee\J 8cc#\^	.	8e/	-ko,
16A\`JJ	.	.	.	.
=10	=10	=10	=10	=10
16C#\`LL	8gg\L 8ee\	.	8g/	ach
16A\`	.	.	.	.
16C#\`	16gg\L 16ee\	.	16g/	me-
16A\`JJ	16gg\JJ 16ee\	.	16g/	-ni
16D\`LL	(16gg\LL 16ee\	.	(16g/LL	nu-
16A\`	16ff#\J 16dd\)	.	16f#/JJ)	.
16D\`	8ff#\J 8dd\	.	8f#/	-dno,
16A\`JJ	.	.	.	.
!!LO:LB:g=original
=11	=11	=11	=11	=11
8D/ 8DD/	8ff#X\L 8ccn\ 8a\	.	8f#/	szo
8r	16ff#\L 16cc\ 16a\	.	16f#/	zbo-
.	16ff#\JJ 16cc\ 16a\	.	16f#/	-ro-
4D/ 4DD/^>	8.ee\L 8.cc\ 8.a\	.	8.e/	-da-
.	16ff#\Jk 16cc\ 16a\	.	16f#/	-tym
=12	=12	=12	=12	=12
8G\L 8GG\	16gg\LL 16b\	.	16g/	ży-
.	16ee\ 16g\	.	16e/	-ty
8A\J 8AA\	16dd\ 16f#\	.	16d/	me-
.	16cc#\JJ 16e\	.	16c#/	-ni
.	8qee 8qg/	.	8qe/	.
!LO:TX:t=P:problem:mixed beam	!	!	!	!
16D\;LL	8dd\L 8f#\	.	8d/	tru-
(16DD/	.	.	.	.
16FF#/	8dd\J 8f#\	.	8d/	-dno.
16AA/JJ)	.	.	.	.
==	==	==	==	==
*-	*-	*-	*-	*-
!!!system-decoration: s1,{(s2,s3)}
!!!RDF**kern: > = above
!!!RDF**kern: < = below
!!!ENC: Leszek Kubiak
!!!END: 2021-11-12
